X:1
T:Title
%%score ( 1 2 ) { 3 | ( 4 5 ) }
L:1/8
Q:1/4=104
M:4/4
K:Ab
V:1 treble nm="Grand Piano, Staff 1"
V:2 treble 
V:3 bass nm="Choir Pad, Macedon, 88.88.88"
V:4 bass 
V:5 bass 
V:1
 [A,C]2 [B,D]2 C2 [C=E]2 | [CF]2 [DF]2 [C=E]2 [CF]2 | z4 z2 d2 | [Fc]2 [FB]2 [FA]2 [EG]2 | %4
w: By~Charles~Ainslie~Barry,~1875 * * *||||
 e2 z2 z2 .e2 | [Ec]2 [Dd]2 [FB]2 [=Ec]2 | [=Ec]2 F2 [_EG]2 [EA]2 | z4 B2 z2 | %8
w: ||||
 [Fc]2 [=Ec]2 [Fc]2 [Ge]2 | [Fc]2 [FB]2 [FA]2 [Fd]2 | [EG]2 [EA]2 [FB]2 [Fc]2 | %11
w: |||
 [Fd]2 [FG]2 [=EG]2 [CF]2- | [CF]6 z2 |] %13
w: ||
V:2
 x8 | x8 | [CA]2 [EB]2 [EA]2 DE | x8 | AG [Ff]2 [Fd]2 E-[Ed] | x8 | x8 | [Ec]2 [EB]2 ED [CA]2 | %8
 x8 | x8 | x8 | x8 | x8 |] %13
V:3
 F,2 F,2 F,2 B,2 | A,2 G,2 G,2 A,2 | A,2 G,2 A,2 F,G, | A,2 B,2 B,2 B,2 | A,2 A,2 B,2 B,2 | %5
 A,G, F,2 F,2 G,2 | CB, A,2 B,2 A,2 | A,2 A,2 G,2 A,2 | A,2 G,2 A,2 B,2 | A,2 B,2[K:treble] C2 D2 | %10
 B,2 A,2 D2[K:bass] C2 | B,2 .C4 A,2- | A,6 z2 |] %13
V:4
 z2 B,,2 A,,2 G,,2 | F,,2 B,,2 C,2 F,,2 | F,2 E,D, C,2 B,,2 | A,,2 D,2 =D,2 E,2 | %4
 C,2 D,C, B,,A,, G,,2 | A,,2 B,,2 D,2 C,2 | C,2 D,2 D,2 C,2 | A,,2 E,2 E,2 z2 | F,2 C,2 F,2 E,2 | %9
 F,2 D,2 C,2 B,,2 | E,D, C,2 B,,2 A,,2 | G,,2 B,,2 z B, F,2- | F,6 z2 |] %13
V:5
 x8 | x8 | x8 | x8 | x8 | x8 | x8 | x8 | x8 | x8 | x8 | z4 C,2 z2 | x8 |] %13

